X: 33451
T: Rabbits Sitting In The Bush
R: polka
M: 2/4
K: Adorian
|:eA ed|BG Bd|eA ed|BG A2|
eA ed|BG Bd|ef gG|BA A2:|
|:(3e/f/g/a ed|bg/b/ ag|ef/e/ dd|ba a2|
ae dd|bg/b/ ag|ef gG|BA A2:|

